X: 27874
T: Mount Pleasant
R: waltz
M: 3/4
K: Eminor
|:"G" D2 d2 cB|"d" A2B2c2|"em"B2 A2 G2|"d"D6|"c" E2 G2 E2|"G" D2 G2 A2|B4 cd|"d" A6|
"Am"E4 A^G|A2 c2 e2|"d"f2 d2 ^c2|"d7"d4 f2|"G" g4 dB|"Bm" f2 d2 B2|"Am7" e2 c2 A2|1 "d"d6:|2 "d7"G2^c2d2||
|:"em" e4 fg|"d" a2 g2 a2|"em"b2 ag fe|"B7"f2 B2 f2|"em"g4 e^d|"c"e2f2g2|"d" a2 f2 d2|"B7"B6|
"em"e2^d2e2|B2c2d2|"c" e2 ba ga|"em"b2 e4|"c" g2f2g2|"em"e2 B2 B2|"B7"a2g2f2|"em" e6:|

